X:1106
T:Dainty Davie
P:Dainty Davie
C:Walsh 1731, here from Gow
R:Strathspey (8x16)
B:RSCDS 11-6
Z:Anselm Lingnau <anselm@strathspey.org>
M:4/4
L:1/8
K:F
d|"F"c>B A>G F<D F2|"F/A"F>c A/B/c/A/ F>c A<f|\
  "A"{d}c>B A>G "Dm"F<D F2|"A"f>g a/g/f/e/ "Dm"d2 f d|
  "F"c>B A>G F<D F2|"F/A"F>c A/B/c/A/ F>c A<f|\
  "A"{d}c>B A>G "Dm"F<D F2|"A"f>g a/g/f/e/ "Dm"d2 f||
c|"F"f>a f>a f<a ag/f/|"C"e>g c>g e<g {a}gf/e/|\
  "Dm"f>a f>a f<a ag/f/|"A"e>c a/g/f/e/ "Dm"d2 f>c|
  "F"f>a f>a f<a {g}ag/f/|"C"e>g c>g e<g {a}gf/e/|\
  "F"f>g ag/a/ "Dm"b/a/g/f/ f/e/d/c/|"Gm"d/e/f/g/ "A7"a/g/f/e/ "Dm"d>e f|]

